X:1
T:The Dunmore Lassies
N:Or, perhaps, the lassies what done more. This tune is also known as "Morrison's Reel" or "The Road
N:to Knock."
M:C|
L:1/8
K:G
|:"Em"E3 F "G"GFGA|"Em"Be e2 Be e2|E3 F "G"GABG|\
"Am"AcBA "D"GEFD|"Em"E3 F "G"GFGA|
"Em"Beed e2 ef|"D"gefd "Em"edBG|"Am"AcBA G"Em"E E2:||:"Em"gfeg "D"fedc|\
"Em"Be e2 Be e2|"Em"gfeg "D"fedc|
"Am"AcBA "D"GEFD|"Em"gfeg "D"fedc|"Em"Beed e2 ef|"D"gefd "Em"edBG|\
"Am"AcBA "Em"GE E2:|
